icons/git-branch-check-16.svg

<svg width="16" height="16" viewBox="0 0 16 16" fill="none" xmlns="http://www.w3.org/2000/svg">
<g clip-path="url(#clip0_28_97)">
<path d="M15.2598 10C15.4584 10.0026 15.6482 10.0835 15.7871 10.2256C15.9258 10.3679 16.0023 10.56 16 10.7588C15.9975 10.9577 15.9167 11.1481 15.7744 11.2871L11.2168 15.7363C11.0754 15.8738 10.8856 15.9505 10.6885 15.9492C10.4911 15.9477 10.3014 15.8683 10.1621 15.7285L8.21875 13.7783C8.08657 13.6359 8.01477 13.4472 8.01855 13.2529C8.02239 13.0587 8.10166 12.8734 8.23926 12.7363C8.3769 12.5993 8.5626 12.5207 8.75684 12.5176C8.95105 12.5146 9.13938 12.5871 9.28125 12.7197L10.7002 14.1455L14.7266 10.2129C14.869 10.0741 15.061 9.99756 15.2598 10Z" fill="black"/>
<path fill-rule="evenodd" clip-rule="evenodd" d="M11.75 1C12.9926 1 14 2.00736 14 3.25C14 4.22966 13.3739 5.06319 12.5 5.37207V6C12.5 7.38071 11.3807 8.5 10 8.5H6C5.44772 8.5 5 8.94772 5 9.5V10.6279C5.87389 10.9368 6.5 11.7703 6.5 12.75C6.5 13.9926 5.49264 15 4.25 15C3.00736 15 2 13.9926 2 12.75C2 11.7703 2.62611 10.9368 3.5 10.6279V5.37207C2.62611 5.06319 2 4.22966 2 3.25C2 2.00736 3.00736 1 4.25 1C5.49264 1 6.5 2.00736 6.5 3.25C6.5 4.22966 5.87389 5.06319 5 5.37207V7.20801C5.30623 7.07421 5.64445 7 6 7H10C10.5523 7 11 6.55228 11 6V5.37207C10.1261 5.06319 9.5 4.22966 9.5 3.25C9.5 2.00736 10.5074 1 11.75 1ZM4.25 12C3.83579 12 3.5 12.3358 3.5 12.75C3.5 13.1642 3.83579 13.5 4.25 13.5C4.66421 13.5 5 13.1642 5 12.75C5 12.3358 4.66421 12 4.25 12ZM4.25 2.5C3.83579 2.5 3.5 2.83579 3.5 3.25C3.5 3.66421 3.83579 4 4.25 4C4.66421 4 5 3.66421 5 3.25C5 2.83579 4.66421 2.5 4.25 2.5ZM11.75 2.5C11.3358 2.5 11 2.83579 11 3.25C11 3.66421 11.3358 4 11.75 4C12.1642 4 12.5 3.66421 12.5 3.25C12.5 2.83579 12.1642 2.5 11.75 2.5Z" fill="black"/>
</g>
<defs>
<clipPath id="clip0_28_97">
<rect width="16" height="16" fill="white"/>
</clipPath>
</defs>
</svg>

<svg xmlns="http://www.w3.org/2000/svg" width="16" height="16" fill="none"><g fill="#000" clip-path="url(#a)"><path d="M15.26 10a.751.751 0 0 1 .514 1.287l-4.557 4.45a.751.751 0 0 1-1.055-.008l-1.943-1.95a.751.751 0 0 1 1.062-1.06l1.42 1.427 4.026-3.933A.751.751 0 0 1 15.26 10Z"/><path fill-rule="evenodd" d="M11.75 1a2.25 2.25 0 0 1 .75 4.372V6A2.5 2.5 0 0 1 10 8.5H6a1 1 0 0 0-1 1v1.128a2.251 2.251 0 1 1-1.5 0V5.372a2.251 2.251 0 1 1 1.5 0v1.836A2.492 2.492 0 0 1 6 7h4a1 1 0 0 0 1-1v-.628A2.251 2.251 0 0 1 11.75 1Zm-7.5 11a.75.75 0 1 0 0 1.5.75.75 0 0 0 0-1.5Zm0-9.5a.75.75 0 1 0 0 1.5.75.75 0 0 0 0-1.5Zm7.5 0a.75.75 0 1 0 0 1.5.75.75 0 0 0 0-1.5Z" clip-rule="evenodd"/></g><defs><clipPath id="a"><path fill="#fff" d="M0 0h16v16H0z"/></clipPath></defs></svg>
